docs/img/login/tel.svg

<svg width="21" height="21" viewBox="0 0 21 21" fill="none" xmlns="http://www.w3.org/2000/svg">
<path fill-rule="evenodd" clip-rule="evenodd" d="M9.85651 6.33796C10.3746 5.63975 10.5604 4.9039 9.97444 4.25437C8.65949 2.41439 7.77515 1.27655 7.22044 0.728598C6.16589 -0.313135 4.43112 -0.172224 3.51779 0.727708C3.02723 1.21107 2.86116 1.37706 2.35747 1.88867C-0.448184 4.69583 1.26285 10.6301 5.81139 15.1831C10.3589 19.7351 16.2926 21.447 19.1041 18.6339C19.5689 18.1858 19.9624 17.7921 20.2728 17.464C21.1678 16.518 21.3037 14.8598 20.2669 13.7825C19.7354 13.2302 18.6503 12.3885 16.7329 11.017C16.1457 10.4919 15.4494 10.6057 14.811 11.0245C14.504 11.226 14.2805 11.4297 13.8585 11.8521L13.0923 12.6188C12.9914 12.7198 11.621 12.0335 10.2907 10.7019C8.95972 9.36959 8.2739 7.99912 8.37435 7.89868L9.14112 7.13148C9.27499 6.99748 9.339 6.9326 9.42108 6.84633C9.59209 6.6666 9.73368 6.5035 9.85651 6.33796ZM14.5057 14.033L15.2721 13.2662C15.5044 13.0337 15.6549 12.8908 15.7773 12.7923C17.457 13.9985 18.4297 14.7569 18.8271 15.1698C19.0656 15.4176 19.0286 15.8699 18.8212 16.0891C18.5342 16.3924 18.1613 16.7655 17.7037 17.2069C15.8857 19.0257 11.0959 17.6437 7.22513 13.7692C3.35315 9.89338 1.97188 5.10285 3.7762 3.29755C4.27786 2.78804 4.4368 2.62918 4.92035 2.15271C5.10166 1.97407 5.59552 1.93395 5.81608 2.15182C6.24314 2.5737 7.03534 3.58805 8.20071 5.21139C8.14038 5.28629 8.06503 5.37093 7.97333 5.4673C7.90603 5.53804 7.84996 5.59488 7.72738 5.71758L6.96136 6.48402C5.65821 7.78706 6.76802 10.0048 8.87697 12.1158C10.9845 14.2254 13.203 15.3364 14.5057 14.033Z" fill="black" fill-opacity="0.9"/>
</svg>

<svg width="21" height="21" fill="none" xmlns="http://www.w3.org/2000/svg"><path fill-rule="evenodd" clip-rule="evenodd" d="M9.857 6.338c.518-.698.703-1.434.117-2.084C8.66 2.414 7.775 1.277 7.22.73 6.166-.313 4.431-.172 3.518.728c-.49.483-.657.65-1.16 1.16C-.449 4.697 1.262 10.63 5.81 15.184c4.548 4.552 10.482 6.264 13.293 3.45.465-.447.858-.84 1.169-1.169.895-.946 1.03-2.604-.006-3.681-.532-.553-1.617-1.394-3.534-2.766-.587-.525-1.284-.411-1.922.008-.307.201-.53.405-.953.827l-.766.767c-.1.1-1.471-.585-2.801-1.917C8.96 9.37 8.274 7.999 8.374 7.899l.767-.768c.134-.134.198-.198.28-.285.171-.18.313-.343.436-.508zm4.649 7.695l.766-.767c.232-.232.383-.375.505-.474 1.68 1.207 2.653 1.965 3.05 2.378.239.248.202.7-.006.92-.287.302-.66.675-1.117 1.117-1.818 1.819-6.608.437-10.479-3.438C3.353 9.893 1.972 5.103 3.776 3.298c.502-.51.66-.669 1.144-1.145.182-.179.676-.219.896-.001.427.422 1.22 1.436 2.385 3.06-.06.074-.136.159-.228.255a9.633 9.633 0 0 1-.246.25l-.766.767c-1.303 1.303-.193 3.52 1.916 5.632 2.107 2.11 4.326 3.22 5.629 1.917z" fill="#000" fill-opacity=".9"/></svg>
